X:1
T:[ID 11-29a]
T:[ID 11-29a]
T:Bezeichnung standardisiert: Walzer Nr 12 Walzer
T:Urheber unbekannt Datum in der hier transkribierten schriftlichen Quelle: vermutlich um 1800
C:Urheber unbekannt
C:Datum in der hier transkribierten schriftlichen Quelle: vermutlich um 1800
L:1/8
M:3/8
K:Bb
V:1 treble 
V:1
 f | f2 b | baa | aa/b/c'/b/ | bd'f | f2 b | baa | aa/b/c'/b/ | b2 :: f | f2 e | dd/c/d | ee/d/e | %13
 (f/d'/c'/b/a/g/) | f2 e | dd/c/d | (f/e/)(d/e/)(c/A/) | B2 :| %18

